!!!!SEGMENT: pl-wnifc--6432-n--008_nowakowski-jozef--anglez-no-8.krn
!!!cenid: 18xx:3931
!!!COM: Nowakowski, Józef
!!!COM-rismID: pe175316
!!!CDT: 1880/09/16-1865/08/27
!!!CNT: Polish
!!!OTL: Anglez No. 8
!!!PDT: 1825
!!!AGN:
!!!SMS-siglum: PL-Wnifc
!!!SMS-shelfmark: 6432/n
!!!SMS-shelfwork: 008 W
!!!SMS-variant:
!!!SMS-altvar:
!!!NIFC-rismSourceID: 1001134745
!!!NIFC-islandoraID: nifc:212700
!!!URL-pdf-islandora: https://repozytorium.nifc.pl/islandora/object/nifc%3A212700/datastream/PDF/view
!!!URL-scan: https://polish.musicsources.pl/pl/lokalizacje/galeria/druki-muzyczne/16851 @EN{Scan on Polish Music Sources Website} @PL{Skany w portalu Dziedzictwo Muzyki Polskiej w otwartym dostępie}
!!!ONB-nifc: UWAGA: w źródle 5 Mazurów (001-005), 4 Anglezy (006-009), 2 Walce (010-011) i Fantaisie Valse (012).
!!!AIN: 1 piano
!!!key: G
**kern	**kern
*part1	*part1
*staff2	*staff1
*>[A,A1,A,A2,B,B1,B,B2]	*>[A,A1,A,A2,B,B1,B,B2]
*>A	*>A
*I"Piano-forté.	*I"Piano-forté.
*I'	*I'
*Ipiano	*Ipiano
*ICklav	*ICklav
*clefF4	*clefG2
*k[f#]	*k[f#]
*G:	*G:
*M2/4	*M2/4
=1	=1
4GG/	4dd\
.	(8qee/
4d 4B 4G\	8dd\L)
.	8cc#X\J
=2	=2
4d 4B 4G\	(8dd\L
.	8ff#\
4d 4B 4G\	8aa\
.	8gg\J)
=3	=3
4GG/	(8b\L
.	8cc\
4d 4B 4G\	8ee\
.	8dd\J)
=4	=4
4G\	(8f#/L
.	8g/
4d 4B\	8cc/
.	8b/J)
=5	=5
4D\	(16a/LL
.	16b/
.	16a/
.	16g#X/JJ
4c 4A 4F#\	8a/L
.	8b/J)
=6	=6
4c 4A 4F#\	8cc\L
.	8b\
4c 4A 4F#\	8cc\
.	8ee\J
=7	=7
!LO:N:xstem	!LO:TX:t=P:problem=mixed beam
4D\	8dd\L
.	8d/
!LO:S:s=2:note:problem:note-level slur	!
(4c (>4A\	8e/
.	8f#/J
=8	=8
!LO:TX:t=1.°	!
*>A1	*>A1
4B 4G\))	8g/L
.	8a/
4r	8b/
.	8cc/J
=9:|!|:	=9:|!|:
!LO:TX:t=2.°	!
*>A2	*>A2
4B 4G\	4g/
4r	8.cc/L
.	16b/Jk
=10||	=10||
*>B	*>B
4BB/	8.b\L
.	16b\K
4B 4A 4F#\	8.b\
.	16b\Jk
=11	=11
4B 4A 4F#\	8.cc#X\L
.	16dd#X\K
4B 4A 4F#\	8.ee\
.	16ff#\Jk
=12	=12
4B 4G 4E\	8.gg\L
.	16aa\K
4B 4G 4E\	8.gg\
.	16ff#\Jk
=13	=13
4B 4G 4E\	4ee\
4r	(4bb\
=14	=14
4AA/	8.aa\L)
.	16aa\K
4A 4G 4E\	8.aa\
.	16aa\Jk
=15	=15
4A 4G 4E\	8.aa\L
.	16a\K
4A 4G 4E\	8.b\
.	16cc#X\Jk
=16	=16
4A 4F# 4D\	8.dd\L
.	16ff#\K
4A 4E 4AA\	8.ee\
.	16cc#X\Jk
=17	=17
!LO:TX:t=1.°	!
*>B1	*>B1
4A 4F# 4D\	4dd\
4r	(8dd\L
.	8ccn\J)
=18:|!	=18:|!
!LO:TX:t=2.°	!
*>B2	*>B2
4A 4F# 4D\	4dd\
4r	8b\L
.	8cc\J
==	==
*-	*-
!!!system-decoration: {(*)}
!!!RDF**kern: > = above
!!!ENC: Berenika Jozajtis
!!!END: 2022-07-27
!!!ENC: Andrzej Kubiczek
!!!END: 2022-08-24
